X:160
T:Florida Rag
C:John Hartford Arr. Blaine Sprouse
N:Transcribed by Vance Henry
R:bluegrass
L:1/8
Q:1/4=236
M:4/4
K:C
z2 c2 d2 e2 |: "F"fc fe fa gf | cA FA cA dc | A^G A_B "C"A=G EC | "F"DE FG F2 Ac | 
fc fe fa gf | cA FA cA dc | Ac fa "C"gf eg | "F"f2 fg f2 Ac | fe fc fa gf | cA FA cA dc | 
A^G A_B A=G EG | F6 (3EFE | "Bb"D_B, DF _Bd cB | "F"AF Ac f2 f2 | Ac fa "C"gf eg | 
|1 "F"f6 Ac :|2 "F"f6 e^f | "C"g^f ga ge cd | e^d ef e=d BG | AB cd cA EF | G6 Bc | 
"G"dB d[ee] dB GA | BA Bc BA GB | "C"[c2E2] [c2E2] cd e^f | "G"[g6d6] ef | "C"g^f ga ge cd | 
e^d ef e=d AB | cB cd cA EF | G6 AB | "F"cA ec ge c'a | "C"ge ae ge cd | e^d ef "G"ec AG | 
"C"c6 Ac :|3 "F"f6 ^cd |: "A"e^c ec A^F AB | ^cd e^f ec (3BcB | AE ^FA "D"=F^F AB | 
"A"^c6 cd | e^c ec A^F AB | ^cd ea ^fe (3BcB | AE ^FA "D"=F^F AB |1 "A"^c6 cd :|2 "A"^c6 A=c | 
"F"f4 [F4A,4] | 


